svg/shop_deli-11.svg

<?xml version="1.0" encoding="UTF-8" standalone="no"?>
<svg
   xmlns:dc="http://purl.org/dc/elements/1.1/"
   xmlns:cc="http://creativecommons.org/ns#"
   xmlns:rdf="http://www.w3.org/1999/02/22-rdf-syntax-ns#"
   xmlns:svg="http://www.w3.org/2000/svg"
   xmlns="http://www.w3.org/2000/svg"
   xmlns:sodipodi="http://sodipodi.sourceforge.net/DTD/sodipodi-0.dtd"
   xmlns:inkscape="http://www.inkscape.org/namespaces/inkscape"
   height="11"
   width="11"
   version="1.0"
   viewBox="0 0 11 11"
   id="svg2"
   inkscape:version="0.91 r13725"
   sodipodi:docname="shop_deli-11.svg">
  <sodipodi:namedview
     pagecolor="#ffffff"
     bordercolor="#666666"
     borderopacity="1"
     objecttolerance="10"
     gridtolerance="10"
     guidetolerance="10"
     inkscape:pageopacity="0"
     inkscape:pageshadow="2"
     inkscape:window-width="924"
     inkscape:window-height="480"
     id="namedview7"
     showgrid="false"
     fit-margin-top="0"
     fit-margin-left="0"
     fit-margin-right="0"
     fit-margin-bottom="0"
     inkscape:zoom="16.857143"
     inkscape:cx="5.5"
     inkscape:cy="5.5"
     inkscape:window-x="0"
     inkscape:window-y="27"
     inkscape:window-maximized="0"
     inkscape:current-layer="svg2" />
  <defs
     id="defs58" />
  <metadata
     id="metadata54">
    <rdf:RDF>
      <cc:Work>
        <dc:format>image/svg+xml</dc:format>
        <dc:type
           rdf:resource="http://purl.org/dc/dcmitype/StillImage" />
        <dc:title></dc:title>
        <cc:license
           rdf:resource="http://creativecommons.org/publicdomain/zero/1.0/" />
      </cc:Work>
      <cc:License
         rdf:about="http://creativecommons.org/publicdomain/zero/1.0/">
        <cc:permits
           rdf:resource="http://creativecommons.org/ns#Reproduction" />
        <cc:permits
           rdf:resource="http://creativecommons.org/ns#Distribution" />
        <cc:permits
           rdf:resource="http://creativecommons.org/ns#DerivativeWorks" />
      </cc:License>
    </rdf:RDF>
  </metadata>
  <rect
     width="11"
     height="11"
     x="0"
     y="0"
     id="canvas"
     style="visibility:hidden;fill:none;stroke:none" />
  <path
     d="M 4.7142856,0 6.2857143,0 C 7.8571429,0 8.642857,0 8.642857,0.7857144 l 0,0.7857143 -6.2857144,0 0,-0.7857143 C 2.3571426,0 3.142857,0 4.7142856,0 Z M 3.1428571,2.3571429 c 0,1.5714283 -1.1883927,0.7857454 -1.1785714,2.3571428 L 1.9888397,8.642857 C 1.9937499,9.428556 2.3571432,11 3.9285714,11 l 3.1428572,0 C 8.642857,11 9.035714,9.428571 9.035714,8.642857 l 0,-3.9285713 c 0,-1.5714281 -1.1785711,-0.7857145 -1.1785711,-2.3571428 l -4.7142858,0 z M 5.5,5.5 c 0.8190391,0 2.4568916,0.4772601 2.4568916,0.4772601 l 0,1.0941685 0,1.0941684 c 0,0 -1.6378524,0.47726 -2.4568916,0.47726 -0.819039,0 -2.4568917,-0.47726 -2.4568917,-0.47726 l 0,-1.0941684 0,-1.0941685 C 3.0431083,5.9772601 4.680961,5.5 5.5,5.5 Z"
     style="opacity:1;fill:#000000;fill-opacity:1;fill-rule:evenodd;stroke:none;stroke-opacity:1"
     id="path4173"
     inkscape:connector-curvature="0" />
</svg>

<svg xmlns="http://www.w3.org/2000/svg" height="11" width="11" version="1">
    <path visibility="hidden" fill="none" d="M0 0h11v11H0z"/>
    <path d="M4.714 0h1.572c1.571 0 2.357 0 2.357.786v.785H2.357V.786C2.357 0 3.143 0 4.714 0zM3.143 2.357c0 1.572-1.189.786-1.179 2.357l.025 3.929c.005.786.368 2.357 1.94 2.357H7.07c1.572 0 1.965-1.571 1.965-2.357V4.714c0-1.571-1.179-.785-1.179-2.357H3.143zM5.5 5.5c.819 0 2.457.477 2.457.477v2.189s-1.638.477-2.457.477-2.457-.477-2.457-.477V5.977S4.681 5.5 5.5 5.5z" fill-rule="evenodd"/>
</svg>
